X: 161091
T: Pete Bradley's
S: "Johnny O'Leary of Sliabh Luachra" (#23)
Z: B.Black
Q: 350
L: 1/8
M: 12/8
R: slide
K: D
e|f2a g2e fed B2A|def agf e3 e3|
faf gfe fed B/c/BA|def efe d2 d2e|
f2a g2e fed B2A|def agf eAB cde|
f2a g2e fed B/c/BA|def efe d3 dcd ||
e3 ece faa agf|efe efe dcd A/B/cd|
e2e ece a2a agf|e/f/ge dcB A3 A2f|
e2e ece a2a agf|efe efe dcd A/B/cd|
e2e ece faa agf|e/f/ge dcB A3 A2e||
"final"e/f/ge dcB Ace a3||
